X:1
T:Let the Master Use You
T:Let the Master Use You
T:Samuel William Beazley
T:Laurene Highfield, 1919
T:Public Domain Courtesy of the Cyber Hymnal™
T:Public Domain Courtesy of the Cyber Hymnal™
C:Samuel William Beazley
Z:Public Domain
Z:Courtesy of the Cyber Hymnal™
%%score ( 1 2 ) ( 3 4 )
L:1/8
Q:1/4=100
M:4/4
K:Ab
V:1 treble 
V:2 treble 
V:3 bass 
V:4 bass 
V:1
 [Ec]>[Fd] [Ec]>[DB] [CA]2 [CE]2 | [DF]>[FA] [EG]>[DF] [CE]4 | [DE]>[DF] [DG]>[DF] [DF]2 [DE]2 | %3
w: 1.~Like a ves- sel fa- shioned|by the Mas- ter’s hand,|Tho’ your place be low- ly,|
w: 2.~Come, your all sur- ren- der|to the God of grace,|In your need- y ho- ur|
w: 3.~Yield to Him the tal- ents|of your life so fair,|Fol- low as He leads you|
 [CE]>[CF] [CG]>[CF] [CF]2 [CE]2 | [Ec]>[Fd] [Ec]>[DB] [CA]2 [CE]2 | [DF]>[FA] [EG]>[DF] [CE]4 | %6
w: be ye cleaned and ho- ly;|That a- mong His chos- en|you in truth may stand,|
w: He can give you pow- er;|Made a wor- thy ves- sel,|fill your wait- ing place,|
w: to the one who needs you,|If you would be wor- thy|in His love to share,|
 [EB]>[E=A] [EB]>[Ec] [EB]>[Ee] [Ec]>[E_A] | [EG]2 [=DF]2 E4 ||"^Refrain" B2 c2 c>e d>c | %9
w: Let the Mas- ter use you in His|work to- day.|Like a ves- sel fa- shioned|
w: Let the Mas- ter use you in His|work to- day.||
w: Let the Mas- ter use you in His|work to- day.||
 B2 B2 [EB]4 | d2 d2 d>f e>d | c2 c2 [Ec]4 | [_Ge]>[Ge] [Gf]>[Ge] [Gc]2 [GA]2 | %13
w: by His hand,|Let the Mas- ter find a|use for you;|Pure and sweet and ho- ly|
w: ||||
w: ||||
 [FA]>[FA] [Ad]>[Ae] [Af]4 | [Ae]>[Ac] A>[AB] [Ac]2 B2 | [EA]6 z2 |] %16
w: keep your heart for Him;|Je- sus wants you to be|true.|
w: |||
w: |||
V:2
 x8 | x8 | x8 | x8 | x8 | x8 | x8 | x4 E4 || (E>A) (G>F) E4 | (E>F) (G>F) x4 | (E>B) (G>F) E4 | %11
 (E>A) (G>F) x4 | x8 | x8 | x2 A3/2 x (GE) x3/2 | x8 |] %16
V:3
 [A,,A,]>[A,,A,] [A,,A,]>[A,,A,] [A,,A,]2 [A,,A,]2 | [D,A,]>[D,A,] [D,A,]>[D,A,] [A,,A,]4 | %2
w: ~ ~ ~ ~ ~ ~|~ ~ ~ ~ ~|
 [E,G,]>[E,A,] [E,B,]>[E,A,] [E,A,]2 [E,G,]2 | [A,,A,]>[A,,A,] [A,,A,]>[A,,A,] [A,,A,]2 [A,,A,]2 | %4
w: ~ ~ ~ ~ ~ ~|~ ~ ~ ~ ~ ~|
 [A,,A,]>[A,,A,] [A,,A,]>[A,,A,] [A,,A,]2 [A,,A,]2 | [D,A,]>[D,A,] [D,A,]>[D,A,] [A,,A,]4 | %6
w: ~ ~ ~ ~ ~ ~|~ ~ ~ ~ ~|
 [G,,B,]>[^F,,C] [G,,B,]>[A,,A,] [G,,B,]>[G,,B,] [A,,A,]>[A,,C] | [B,,B,]2 [B,,A,]2 [E,G,]4 || %8
w: ~ ~ ~ ~ ~ ~ ~ ~|~ ~ ~|
 A,2 A,2 A,>C B,>A, | [E,G,]>[E,A,] [E,B,]>[E,A,] [E,G,]4 | G,2 ([E,B,]>[E,A,]) G,>D C>B, | %11
w: Like a ves- sel that is|fa- shioned by His hand,|Let Him * find a use, yes,|
 [A,,A,]>[A,,A,] [A,,A,]>[A,,A,] A,4 | [A,C]6 [A,C]2 | [D,D]>[D,D] [F,D]>[A,C] [D,D]2 [=D,=B,]2 | %14
w: ~ use for you, And|pure and|ho- ly * * * *|
 [E,C]>[E,E] [F,=D]>[F,D] [E,E]2 [E,_D]2 | [A,,C]6 z2 |] %16
w: ||
V:4
 x8 | x8 | x8 | x8 | x8 | x8 | x8 | x8 || (A,,>A,,) (A,,>A,,) A,,4 | x8 | (E,>E,) x/ E,4 x3/2 | %11
 x4 (A,,>B,,) C,>E, | x8 | x8 | x8 | x8 |] %16

